packages/icons/svg/Fill/shield.svg

<svg width="24" height="24" viewBox="0 0 24 24" fill="none" xmlns="http://www.w3.org/2000/svg">
<g id="Icon/Fill/shield">
<path id="Mask" fill-rule="evenodd" clip-rule="evenodd" d="M12 21.851C11.661 21.851 11.322 21.767 11.021 21.597L10.718 21.426C5.957 18.748 3 13.692 3 8.23001V8.08501C3 7.36601 3.39 6.69801 4.018 6.34301L11.02 2.40501C11.625 2.06501 12.376 2.06401 12.979 2.40401L19.98 6.34201C20.61 6.69801 21 7.36601 21 8.08501V8.23001C21 13.692 18.043 18.748 13.282 21.426L12.98 21.596C12.678 21.766 12.339 21.851 12 21.851Z" fill="#000000"/>
</g>
</svg>

<svg fill="none" height="24" viewBox="0 0 24 24" width="24" xmlns="http://www.w3.org/2000/svg"><path clip-rule="evenodd" d="m12 21.8509c-.339 0-.678-.084-.979-.254l-.303-.171c-4.761-2.678-7.718-7.734-7.718-13.19599v-.145c0-.719.39-1.387 1.018-1.742l7.002-3.938c.605-.34 1.356-.341 1.959-.001l7.001 3.938c.63.356 1.02 1.024 1.02 1.743v.145c0 5.46199-2.957 10.51799-7.718 13.19599l-.302.17c-.302.17-.641.255-.98.255" fill="#6b7280" fill-rule="evenodd"/></svg>
